public/assets/images/layered-steps.svg

<svg viewBox="0 0 900 300" preserveAspectRatio="none" xmlns="http://www.w3.org/2000/svg"><path fill="var(--0xf-color-body-background-color)" d="M0 0h900v300H0z"/><path d="M0 227h82v-53h82v-21h81v-13h82v23h82v-21h82v79h82v-73h82v60h81v1h82v-32h82v9V0H0Z" fill="#0b2d2d"/><path d="M0 146h82v-22h82V95h81v12h82v55h82V71h82v80h82v-36h82V72h81v51h82v-6h82v25V0H0Z" fill="#218282"/><path d="M0 24h82v72h82V17h81v84h82V37h82v7h82v59h82v-9h82V50h81v11h82v39h82V0H0Z" fill="#36e2e2"/></svg>

<svg id="visual" viewBox="0 0 900 300" width="900" height="300" xmlns="http://www.w3.org/2000/svg" xmlns:xlink="http://www.w3.org/1999/xlink" version="1.1"><rect x="0" y="0" width="900" height="300" fill="#181818"></rect><path d="M0 227L82 227L82 174L164 174L164 153L245 153L245 140L327 140L327 163L409 163L409 142L491 142L491 221L573 221L573 148L655 148L655 208L736 208L736 209L818 209L818 177L900 177L900 186L900 0L900 0L818 0L818 0L736 0L736 0L655 0L655 0L573 0L573 0L491 0L491 0L409 0L409 0L327 0L327 0L245 0L245 0L164 0L164 0L82 0L82 0L0 0Z" fill="#0b2d2d"></path><path d="M0 146L82 146L82 124L164 124L164 95L245 95L245 107L327 107L327 162L409 162L409 71L491 71L491 151L573 151L573 115L655 115L655 72L736 72L736 123L818 123L818 117L900 117L900 142L900 0L900 0L818 0L818 0L736 0L736 0L655 0L655 0L573 0L573 0L491 0L491 0L409 0L409 0L327 0L327 0L245 0L245 0L164 0L164 0L82 0L82 0L0 0Z" fill="#218282"></path><path d="M0 24L82 24L82 96L164 96L164 17L245 17L245 101L327 101L327 37L409 37L409 44L491 44L491 103L573 103L573 94L655 94L655 50L736 50L736 61L818 61L818 100L900 100L900 43L900 0L900 0L818 0L818 0L736 0L736 0L655 0L655 0L573 0L573 0L491 0L491 0L409 0L409 0L327 0L327 0L245 0L245 0L164 0L164 0L82 0L82 0L0 0Z" fill="#36e2e2"></path></svg>
